packages/core/src/svgs/tokens/mono/HBB.svg

<svg width="24" height="24" viewBox="0 0 24 24" fill="none" xmlns="http://www.w3.org/2000/svg">
<path fill-rule="evenodd" clip-rule="evenodd" d="M7.88234 8.76476H5.5294V10.5295H7.88234V8.76476ZM4.94116 8.76476V10.5295H2.58823V8.76476H4.94116ZM2.58823 12.8824V11.1178H4.94116V12.8824H2.58823ZM2.58823 13.4706V15.2354H4.94116V13.4706H2.58823ZM4.94116 18.1589C4.34485 18.092 3.78897 17.8244 3.36467 17.4001C2.94036 16.9758 2.67281 16.4199 2.60587 15.8235H4.94116V18.1589ZM5.5294 18.1589V15.8235H7.86469C7.79777 16.4199 7.53021 16.9758 7.1059 17.4001C6.6816 17.8244 6.12571 18.092 5.5294 18.1589ZM7.88234 13.4706V15.2354H5.5294V13.4706H7.88234ZM7.88234 12.8824V11.1178H5.5294V12.8824H7.88234ZM5.5294 8.17653V5.84124C6.12571 5.90817 6.6816 6.17573 7.1059 6.60002C7.53021 7.02433 7.79777 7.58021 7.86469 8.17653H5.5294ZM4.94116 8.17653H2.60587C2.67281 7.58021 2.94036 7.02433 3.36467 6.60002C3.78897 6.17573 4.34485 5.90817 4.94116 5.84124V8.17653ZM2 8.47065C1.99959 7.66324 2.30111 6.88484 2.84531 6.28838C3.38953 5.69193 4.1371 5.32052 4.94116 5.24713V5.23535H5.5294V5.24713C7.17645 5.39418 8.47058 6.78242 8.47058 8.47065V15.5294C8.47058 16.3875 8.12972 17.2104 7.52298 17.8172C6.91625 18.4238 6.09334 18.7648 5.23529 18.7648C4.37724 18.7648 3.55433 18.4238 2.94759 17.8172C2.34086 17.2104 2 16.3875 2 15.5294V8.47065ZM21.4117 8.76476H19.0588V10.5295H21.4117V8.76476ZM18.4706 8.76476V10.5295H16.1177V8.76476H18.4706ZM16.1177 12.8824V11.1178H18.4706V12.8824H16.1177ZM16.1177 13.4706V15.2354H18.4706V13.4706H16.1177ZM18.4706 18.1589C17.8743 18.092 17.3184 17.8244 16.8941 17.4001C16.4697 16.9758 16.2022 16.4199 16.1352 15.8235H18.4706V18.1589ZM19.0588 18.1589V15.8235H21.3942C21.3272 16.4199 21.0597 16.9758 20.6353 17.4001C20.211 17.8244 19.6551 18.092 19.0588 18.1589ZM21.4117 13.4706V15.2354H19.0588V13.4706H21.4117ZM21.4117 12.8824V11.1178H19.0588V12.8824H21.4117ZM19.0588 8.17653V5.84124C19.6551 5.90817 20.211 6.17573 20.6353 6.60002C21.0597 7.02433 21.3272 7.58021 21.3942 8.17653H19.0588ZM18.4706 8.17653H16.1352C16.2022 7.58021 16.4697 7.02433 16.8941 6.60002C17.3184 6.17573 17.8743 5.90817 18.4706 5.84124V8.17653ZM15.5294 8.47065C15.529 7.66324 15.8305 6.88484 16.3747 6.28838C16.919 5.69193 17.6665 5.32052 18.4706 5.24713V5.23535H19.0588V5.24713C20.7058 5.39418 22 6.78242 22 8.47065V15.5294C22 16.3875 21.6591 17.2104 21.0524 17.8172C20.4456 18.4238 19.6227 18.7648 18.7646 18.7648C17.9066 18.7648 17.0837 18.4238 16.477 17.8172C15.8702 17.2104 15.5294 16.3875 15.5294 15.5294V8.47065ZM9.64707 9.35294H11.4118V11.1178H9.64707V9.35294ZM14.353 9.35294H12.5882V11.1178H14.353V9.35294ZM12.5882 12.2942H14.353V14.0589H12.5882V12.2942ZM11.4118 12.2942H9.64707V14.0589H11.4118V12.2942Z" fill="white"/>
</svg>

<svg xmlns="http://www.w3.org/2000/svg" width="24" height="24" fill="none" viewBox="0 0 24 24">
    <path fill="#fff" fill-rule="evenodd" d="M7.882 8.765H5.53v1.765h2.353zm-2.94 0v1.765H2.587V8.765zm-2.354 4.117v-1.764h2.353v1.764zm0 .589v1.764h2.353v-1.764zm2.353 4.688a2.65 2.65 0 0 1-2.335-2.335H4.94zm.588 0v-2.335h2.336a2.65 2.65 0 0 1-2.336 2.335m2.353-4.688v1.764H5.53v-1.764zm0-.589v-1.764H5.53v1.764zM5.53 8.177V5.84a2.65 2.65 0 0 1 2.336 2.336zm-.588 0H2.606A2.65 2.65 0 0 1 4.94 5.84zM2 8.47a3.235 3.235 0 0 1 2.941-3.224v-.012h.588v.012A3.237 3.237 0 0 1 8.471 8.47v7.058a3.236 3.236 0 0 1-6.471 0zm19.412.294h-2.353v1.765h2.353zm-2.941 0v1.765h-2.353V8.765zm-2.353 4.117v-1.764h2.353v1.764zm0 .589v1.764h2.353V13.47zm2.353 4.688a2.65 2.65 0 0 1-2.336-2.335h2.336zm.588 0v-2.335h2.335a2.65 2.65 0 0 1-2.335 2.335m2.353-4.688v1.764h-2.353V13.47zm0-.589v-1.764h-2.353v1.764zm-2.353-4.705V5.84a2.65 2.65 0 0 1 2.335 2.336zm-.588 0h-2.336a2.65 2.65 0 0 1 2.336-2.336zm-2.942.294a3.235 3.235 0 0 1 2.942-3.224v-.012h.588v.012A3.237 3.237 0 0 1 22 8.471v7.058a3.236 3.236 0 0 1-6.47 0zm-5.882.882h1.765v1.765H9.647zm4.706 0h-1.765v1.765h1.765zm-1.765 2.941h1.765v1.765h-1.765zm-1.176 0H9.647v1.765h1.765z" clip-rule="evenodd"/>
</svg>
